packages/dnb-ui-lib/assets/icons/redo.svg

<svg width="16" height="16" viewBox="0 0 16 16" fill="none" xmlns="http://www.w3.org/2000/svg">
<path d="M12.1818 7.96591C12.1818 8.38012 12.5176 8.71591 12.9318 8.71591C13.346 8.71591 13.6818 8.38012 13.6818 7.96591H12.1818ZM6.96591 14.6818C7.38012 14.6818 7.71591 14.346 7.71591 13.9318C7.71591 13.5176 7.38012 13.1818 6.96591 13.1818V14.6818ZM12.9318 9L12.4015 9.53033C12.5421 9.67098 12.7329 9.75 12.9318 9.75C13.1307 9.75 13.3215 9.67098 13.4621 9.53033L12.9318 9ZM11.394 6.40149C11.1011 6.1086 10.6262 6.1086 10.3333 6.40149C10.0404 6.69438 10.0404 7.16926 10.3333 7.46215L11.394 6.40149ZM15.5303 7.46215C15.8232 7.16926 15.8232 6.69438 15.5303 6.40149C15.2374 6.1086 14.7626 6.1086 14.4697 6.40149L15.5303 7.46215ZM1.75 7.96591C1.75 5.08524 4.08524 2.75 6.96591 2.75V1.25C3.25681 1.25 0.25 4.25681 0.25 7.96591H1.75ZM6.96591 2.75C9.84658 2.75 12.1818 5.08524 12.1818 7.96591H13.6818C13.6818 4.25681 10.675 1.25 6.96591 1.25V2.75ZM6.96591 13.1818C4.08524 13.1818 1.75 10.8466 1.75 7.96591H0.25C0.25 11.675 3.25681 14.6818 6.96591 14.6818V13.1818ZM13.4621 8.46967L11.394 6.40149L10.3333 7.46215L12.4015 9.53033L13.4621 8.46967ZM13.4621 9.53033L15.5303 7.46215L14.4697 6.40149L12.4015 8.46967L13.4621 9.53033Z" fill="black"/>
</svg>

<svg width="16" height="16" viewBox="0 0 16 16" fill="none" xmlns="http://www.w3.org/2000/svg"><path d="M12.182 7.966a.75.75 0 001.5 0h-1.5zm-5.216 6.716a.75.75 0 000-1.5v1.5zM12.932 9l-.53.53a.75.75 0 001.06 0l-.53-.53zm-1.538-2.599a.75.75 0 00-1.06 1.061l1.06-1.06zm4.136 1.061a.75.75 0 00-1.06-1.06l1.06 1.06zm-13.78.504A5.216 5.216 0 016.966 2.75v-1.5A6.716 6.716 0 00.25 7.966h1.5zM6.966 2.75a5.216 5.216 0 015.216 5.216h1.5A6.716 6.716 0 006.966 1.25v1.5zm0 10.432A5.216 5.216 0 011.75 7.966H.25a6.716 6.716 0 006.716 6.716v-1.5zm6.496-4.712L11.394 6.4l-1.06 1.061 2.068 2.068 1.06-1.06zm0 1.06l2.068-2.068-1.06-1.06L12.4 8.47l1.061 1.06z" fill="#000"/></svg>
